svg/fluentui-system-icons/ic_fluent_cube_12_filled.svg

<svg width="12" height="12" viewBox="0 0 12 12" fill="none" xmlns="http://www.w3.org/2000/svg">
<path d="M6.42733 2.06606C6.14847 1.98319 5.85153 1.98319 5.57267 2.06606L2.71512 2.91533C2.2909 3.0414 2 3.43133 2 3.87389V8.12782C2 8.57042 2.29094 8.96036 2.7152 9.08641L5.57281 9.9354C5.85158 10.0182 6.14842 10.0182 6.42719 9.9354L9.28479 9.08641C9.70906 8.96036 10 8.57042 10 8.12782V3.87389C10 3.43133 9.70911 3.0414 9.28488 2.91533L6.42733 2.06606ZM4.02566 4.84274C4.11298 4.58077 4.39614 4.43919 4.65811 4.52651L6 4.97381L7.34189 4.52651C7.60386 4.43919 7.88702 4.58077 7.97434 4.84274C8.06167 5.10471 7.92009 5.38787 7.65811 5.4752L6.5 5.86123V7.00073C6.5 7.27687 6.27614 7.50073 6 7.50073C5.72386 7.50073 5.5 7.27687 5.5 7.00073V5.86123L4.34189 5.4752C4.07991 5.38787 3.93833 5.10471 4.02566 4.84274Z" fill="#212121"/>
</svg>

<svg xmlns="http://www.w3.org/2000/svg" width="12" height="12"><path d="M6.427 2.066a1.5 1.5 0 0 0-.854 0l-2.858.85A1 1 0 0 0 2 3.873v4.254a1 1 0 0 0 .715.958l2.858.85a1.5 1.5 0 0 0 .854 0l2.858-.85A1 1 0 0 0 10 8.128V3.874a1 1 0 0 0-.715-.959l-2.858-.849ZM4.026 4.843a.5.5 0 0 1 .632-.316L6 4.974l1.342-.447a.5.5 0 0 1 .316.948L6.5 5.861v1.14a.5.5 0 0 1-1 0V5.86l-1.158-.386a.5.5 0 0 1-.316-.632Z"/></svg>
